templates/main/source/svg/icons/header-search.svg

<svg xmlns="http://www.w3.org/2000/svg" width="19" height="19"><path fill-rule="evenodd" fill="#fff" d="M17.538 19c-.388 0-.765-.16-1.027-.435l-3.917-3.905a8.017 8.017 0 0 1-4.556 1.415A8.033 8.033 0 0 1 0 8.039 8.036 8.036 0 0 1 8.038 0a8.036 8.036 0 0 1 6.623 12.592l3.917 3.918c.262.264.422.639.422 1.029 0 .799-.662 1.461-1.462 1.461zm-9.5-16.078a5.122 5.122 0 0 0-5.115 5.117 5.122 5.122 0 0 0 5.115 5.115 5.122 5.122 0 0 0 5.116-5.115 5.123 5.123 0 0 0-5.116-5.117z"/></svg>

<svg
 xmlns="http://www.w3.org/2000/svg"
 xmlns:xlink="http://www.w3.org/1999/xlink"
 width="19px" height="19px">
<path fill-rule="evenodd"  fill="#fff"
 d="M17.538,19.000 C17.150,19.000 16.773,18.840 16.511,18.565 L12.594,14.660 C11.258,15.585 9.660,16.075 8.038,16.075 C3.597,16.075 -0.000,12.481 -0.000,8.039 C-0.000,3.597 3.597,0.000 8.038,0.000 C12.480,0.000 16.077,3.597 16.077,8.039 C16.077,9.660 15.586,11.258 14.661,12.592 L18.578,16.510 C18.840,16.774 19.000,17.149 19.000,17.539 C19.000,18.338 18.338,19.000 17.538,19.000 ZM8.038,2.922 C5.218,2.922 2.923,5.218 2.923,8.039 C2.923,10.858 5.218,13.154 8.038,13.154 C10.859,13.154 13.154,10.858 13.154,8.039 C13.154,5.218 10.859,2.922 8.038,2.922 Z"/>
</svg>
